packages/core/src/svgs/stars.svg

<svg width="24" height="24" viewBox="0 0 24 24" fill="none" xmlns="http://www.w3.org/2000/svg">
<g clip-path="url(#clip0_31_19340)">
<path d="M0 0H24V24H0V0Z" fill="#F0F3FA"/>
<path d="M9.23142 9.72411C9.24342 9.6889 9.24623 9.65121 9.23959 9.6146C9.23294 9.578 9.21707 9.5437 9.19347 9.51495C9.16986 9.48619 9.13931 9.46394 9.10471 9.4503C9.0701 9.43665 9.03258 9.43206 8.99571 9.43697L4.90285 10.0198C4.86273 10.0251 4.82487 10.0415 4.79348 10.067C4.76209 10.0926 4.73842 10.1263 4.72509 10.1645C4.71176 10.2027 4.7093 10.2439 4.71798 10.2834C4.72667 10.323 4.74616 10.3593 4.77428 10.3884L7.68857 13.397C7.71429 13.4251 7.74707 13.4459 7.78351 13.4572C7.81995 13.4684 7.85874 13.4698 7.89587 13.461C7.933 13.4523 7.96713 13.4338 7.99472 13.4075C8.02232 13.3812 8.04239 13.3479 8.05285 13.3113L9.23142 9.72411Z" fill="#E2BB5E"/>
<path d="M7.74431 18.1502C7.73064 18.1909 7.72951 18.2348 7.74106 18.2761C7.75262 18.3175 7.77633 18.3544 7.80913 18.3821C7.84192 18.4098 7.88228 18.427 7.92498 18.4315C7.96768 18.436 8.01074 18.4276 8.04859 18.4073L11.8757 16.5902C11.9039 16.5771 11.9347 16.5704 11.9657 16.5704C11.9968 16.5704 12.0275 16.5771 12.0557 16.5902L16.0543 18.4031C16.2257 18.4802 16.41 18.3173 16.35 18.1331C15.5957 15.8616 14.9143 13.6159 14.1857 11.3488C14.1726 11.3102 14.1488 11.2762 14.1171 11.2507C14.0853 11.2252 14.047 11.2092 14.0065 11.2047C13.966 11.2002 13.9251 11.2074 13.8885 11.2253C13.852 11.2432 13.8213 11.2712 13.8 11.3059L12.1843 14.2031C12.1655 14.2375 12.1375 14.2661 12.1035 14.2858C12.0695 14.3055 12.0307 14.3154 11.9915 14.3145H11.9229C11.8839 14.3142 11.8457 14.3032 11.8125 14.2828C11.7793 14.2625 11.7522 14.2334 11.7343 14.1988L10.1657 11.3145C10.1478 11.2799 10.1208 11.2508 10.0875 11.2304C10.0543 11.21 10.0162 11.1991 9.97717 11.1988H9.95574C9.90864 11.1978 9.86255 11.2124 9.82459 11.2403C9.78663 11.2682 9.75892 11.3078 9.74574 11.3531C9.03795 13.6066 8.37069 15.8727 7.74431 18.1502Z" fill="url(#paint0_linear_31_19340)"/>
<path d="M15.9172 13.2471C15.9281 13.2829 15.9482 13.3153 15.9754 13.3409C16.0027 13.3666 16.0362 13.3846 16.0726 13.3933C16.109 13.402 16.1471 13.4009 16.183 13.3903C16.2189 13.3797 16.2514 13.3599 16.2772 13.3328L19.2215 10.3885C19.3501 10.26 19.2772 10.0457 19.0972 10.0157L15.0258 9.44569C14.9891 9.44029 14.9516 9.44432 14.9169 9.45741C14.8821 9.4705 14.8513 9.49222 14.8273 9.52052C14.8033 9.54882 14.7869 9.58276 14.7796 9.61916C14.7724 9.65555 14.7745 9.6932 14.7858 9.72855L15.9172 13.2471Z" fill="#DBA527"/>
<path d="M13.6371 9.37288C13.6506 9.34103 13.6576 9.30678 13.6576 9.27217C13.6576 9.23756 13.6506 9.2033 13.6371 9.17145C13.629 9.15471 13.6219 9.13754 13.6157 9.12002L12.1714 4.44002C12.1598 4.39369 12.133 4.35256 12.0953 4.32318C12.0577 4.29379 12.0113 4.27783 11.9635 4.27783C11.9157 4.27783 11.8693 4.29379 11.8317 4.32318C11.794 4.35256 11.7673 4.39369 11.7557 4.44002L10.3414 9.12002L10.3199 9.1886C10.3029 9.24212 10.306 9.30001 10.3285 9.35145L11.7299 12.5829C11.7685 12.66 11.8457 12.7115 11.9271 12.7115H11.9785C12.0203 12.7116 12.0613 12.6995 12.0963 12.6767C12.1313 12.6538 12.1589 12.6212 12.1757 12.5829L13.6328 9.37288H13.6371Z" fill="url(#paint1_linear_31_19340)"/>
</g>
<defs>
<linearGradient id="paint0_linear_31_19340" x1="4.71431" y1="10.4659" x2="19.2857" y2="10.4659" gradientUnits="userSpaceOnUse">
<stop offset="0.49" stop-color="#E2BB5E"/>
<stop offset="0.5" stop-color="#DBA527"/>
</linearGradient>
<linearGradient id="paint1_linear_31_19340" x1="4.71422" y1="10.4657" x2="19.2856" y2="10.4657" gradientUnits="userSpaceOnUse">
<stop offset="0.49" stop-color="#E2BB5E"/>
<stop offset="0.5" stop-color="#DBA527"/>
</linearGradient>
<clipPath id="clip0_31_19340">
<rect width="24" height="24" fill="white"/>
</clipPath>
</defs>
</svg>

<svg xmlns="http://www.w3.org/2000/svg" width="24" height="24" fill="none" viewBox="0 0 24 24"><g clip-path="url(#a)"><path fill="#F0F3FA" d="M0 0h24v24H0z"/><path fill="#E2BB5E" d="M9.231 9.724a.22.22 0 0 0-.235-.287l-4.093.583a.22.22 0 0 0-.129.368l2.915 3.009a.215.215 0 0 0 .364-.086z"/><path fill="url(#b)" d="M7.744 18.15a.214.214 0 0 0 .305.257l3.827-1.817a.21.21 0 0 1 .18 0l3.998 1.813a.219.219 0 0 0 .296-.27c-.754-2.271-1.436-4.517-2.164-6.784a.214.214 0 0 0-.386-.043l-1.616 2.897a.22.22 0 0 1-.192.112h-.07a.21.21 0 0 1-.188-.116l-1.568-2.884a.21.21 0 0 0-.189-.116h-.021a.214.214 0 0 0-.21.154 197 197 0 0 0-2.002 6.797"/><path fill="#DBA527" d="M15.917 13.247a.215.215 0 0 0 .36.086l2.944-2.944a.22.22 0 0 0-.124-.373l-4.071-.57a.22.22 0 0 0-.24.283z"/><path fill="url(#c)" d="M13.637 9.373a.26.26 0 0 0 0-.202l-.021-.051-1.445-4.68a.214.214 0 0 0-.415 0L10.34 9.12l-.021.069a.23.23 0 0 0 .008.162l1.402 3.232a.23.23 0 0 0 .197.128h.052a.22.22 0 0 0 .197-.128l1.457-3.21z"/></g><defs><linearGradient id="b" x1="4.714" x2="19.286" y1="10.466" y2="10.466" gradientUnits="userSpaceOnUse"><stop offset=".49" stop-color="#E2BB5E"/><stop offset=".5" stop-color="#DBA527"/></linearGradient><linearGradient id="c" x1="4.714" x2="19.286" y1="10.466" y2="10.466" gradientUnits="userSpaceOnUse"><stop offset=".49" stop-color="#E2BB5E"/><stop offset=".5" stop-color="#DBA527"/></linearGradient><clipPath id="a"><path fill="#fff" d="M0 0h24v24H0z"/></clipPath></defs></svg>
